; generated by Slic3r 1.2.9 on 2017-01-04 at 22:46:59

; external perimeters extrusion width = 0.50mm
; perimeters extrusion width = 0.85mm
; infill extrusion width = 1.98mm
; solid infill extrusion width = 0.85mm
; top infill extrusion width = 0.85mm

M107 // turn fan off
// M107 -> box.fan([])
;* box.fan('off')
M104 S200 ; set temperature
// to 200 Celsius and continue immediately
;* box.temp = 200
;* box.heat()

G28 ; home all axes
// ?
G1 Z5 F5000 ; lift nozzle
// at feed rate of 50000
// why is this placed here? can I consolidate into box.start

M109 S200 ; wait for temperature to be reached
// is this the same temp or the build platform temp??
// still set to 200
;* box.heat('wait')
G21 ; set units to millimeters
// G70 is inches i think
;* box.unit = 'mm'
// string literal can also be full word
G90 ; use absolute coordinates
// one command for defaults like these
;* defaultBox()
M82 ; use absolute distances for extrusion
// maybe also a default
G92 E0 // define current position on axes. default?
; box.start()
// this means that the parameters are set and we can begin extruding
G1 Z0.500 F7800.000
// G1 is coordinated motion. Z axes. F is feed rate
// G1 -> head.motion
;* head.motion = 'coordinated'
;* while head.motion == 'coordinated':
G1 E-2.00000 F2400.00000
G92 E0
G1 X88.462 Y81.112 F7800.000
;* head.x=88.462
;* head.y=81.112
;* head.feed = 2400.00000
;* set(1) = {
    
    }
;* set(10) = {
    xT(90,104,1)
    }

G1 E2.00000 F2400.00000
G1 X90.273 Y79.631 E2.14774 F1275.764
G1 X91.820 Y78.989 E2.25349
G1 X92.293 Y78.866 E2.28437
G1 X93.556 Y78.692 E2.36482
G1 X94.742 Y78.640 E2.43984
G1 X95.380 Y78.632 E2.48012
G1 X96.747 Y78.764 E2.56681
G1 X97.764 Y78.966 E2.63229 F1275.764
G1 X98.473 Y79.129 E2.67824
G1 X99.760 Y79.570 E2.76412
G1 X101.001 Y80.141 E2.85042
G1 X101.319 Y80.298 E2.87281
G1 X102.426 Y80.981 E2.95495
G1 X103.282 Y81.627 E3.02265
G1 X104.025 Y82.277 E3.08497
G1 X116.385 Y94.760 E4.19426
G1 X118.059 Y97.530 E4.39864
G1 X118.327 Y98.623 E4.46971
G1 X118.358 Y98.810 E4.48169
G1 X118.333 Y101.150 E4.62943
G1 X117.294 Y103.724 E4.80472
G1 X116.768 Y104.516 E4.86477
G1 X115.755 Y105.717 E4.96397
G1 X115.372 Y106.077 E4.99714
G1 X113.422 Y107.370 E5.14488
G1 X111.152 Y107.935 E5.29262
G1 X109.463 Y107.852 E5.39942
G1 X108.658 Y107.712 E5.45101
G1 X106.454 Y106.925 E5.59875
G1 X105.388 Y106.183 E5.68076
G1 X89.169 Y92.463 E7.02224
G1 X87.665 Y90.670 E7.16998
G1 X86.731 Y87.423 E7.38335
G1 X86.730 Y86.936 E7.41407
G1 X86.780 Y85.406 E7.51079
G1 X87.251 Y83.114 E7.65853
G1 X88.423 Y81.176 E7.80154
G1 E5.80154 F2400.00000
G92 E0
G1 X98.438 Y88.143 F7800.000
G1 E2.00000 F2400.00000
G1 X97.596 Y88.013 E2.05378 F1275.764
G1 X96.681 Y87.788 E2.11326
G1 X95.396 Y87.373 E2.19853
G1 X94.131 Y86.866 E2.28459
G1 X94.156 Y86.068 E2.33500
G1 X95.364 Y86.026 E2.41137
G1 X96.726 Y86.312 E2.49923
G1 X98.012 Y86.911 E2.58884
G1 X98.581 Y87.341 E2.63382
G1 X98.451 Y88.069 E2.68052
G1 X98.050 Y87.827 F7800.000
G1 X98.083 Y87.587 F7800.000
G1 X97.703 Y87.425 E2.70660 F1275.764
G1 X96.493 Y86.984 E2.78794
G1 X95.313 Y86.660 E2.86521
G1 X94.588 Y86.533 E2.91170
G1 Z0.600 F7800.000
G1 E0.91170 F2400.00000
G92 E0
G1 X99.165 Y88.362 F7800.000
G1 E2.00000 F2400.00000
G1 X98.730 Y88.328 E2.00512 F694.466
G1 X98.085 Y88.235 E2.01275
G1 X97.480 Y88.120 E2.01997
G1 X96.336 Y87.806 E2.03388
G1 X95.193 Y87.396 E2.04811
G1 X94.014 Y86.900 E2.06310
G1 X93.387 Y86.609 E2.07121
G1 X92.728 Y86.302 E2.09141 F900.000
G1 X93.403 Y86.114 E2.11089
G1 X94.114 Y85.935 E2.11948 F694.466
G1 X94.696 Y85.910 E2.12631
G1 X95.464 Y85.907 E2.13530
G1 X96.745 Y86.196 E2.15070
G1 X97.957 Y86.779 E2.16647
G1 X99.072 Y87.636 E2.18295
G1 X99.256 Y87.840 E2.18618
G1 X99.382 Y87.980 E2.19138 F900.000
G1 X99.293 Y88.367 E2.20242
G1 X99.240 Y88.365 E2.20389
G1 X99.809 Y89.043 F7800.000
G1 X98.654 Y88.978 E2.23602 F900.000
G1 X97.978 Y88.879 E2.25502
G1 X97.341 Y88.758 E2.27303
G1 X96.134 Y88.428 E2.30778
G1 X95.439 Y88.178 E2.32829
G1 X94.956 Y88.005 E2.33177 F694.466
G1 X93.374 Y87.323 E2.34343
G1 X92.539 Y86.935 E2.36903 F900.000
G1 X92.516 Y85.683 E2.40382
G1 X93.699 Y85.361 E2.43787
G1 X93.835 Y85.329 E2.43882 F694.466
G1 X94.024 Y85.285 E2.44422 F900.000
G1 X94.681 Y85.256 E2.46246
G1 X95.527 Y85.253 E2.48597
G1 X96.964 Y85.576 E2.52688
G1 X97.818 Y85.987 E2.55321
G1 X98.302 Y86.219 E2.55684 F694.466
G1 X99.393 Y87.058 E2.56616
G1 X99.518 Y87.154 E2.57054 F900.000
G1 X100.094 Y87.794 E2.59447
G1 X99.826 Y88.969 E2.62795
G1 E0.62795 F2400.00000
G92 E0
G1 X98.027 Y87.603 F7800.000
G1 E2.00000 F2400.00000
G1 X97.576 Y87.398 E2.01177 F925.955
G1 X96.468 Y86.977 E2.03991
G1 X95.391 Y86.661 E2.06657
G1 X94.724 Y86.528 E2.08271
G1 E0.08271 F2400.00000
G92 E0
G1 X96.057 Y88.666 F7800.000
G1 X96.973 Y95.767 F7800.000
G1 X98.673 Y97.663 F7800.000
G1 X91.626 Y103.351 F7800.000
G1 X92.626 Y104.277 F7800.000
G1 X92.983 Y106.406 F7800.000
G1 E2.00000 F2400.00000
G1 X92.684 Y105.718 E2.00879 F1388.932
G1 X92.644 Y104.723 E2.02047
G1 E0.02047 F2400.00000
G92 E0
G1 X92.976 Y105.571 F7800.000
G1 X99.108 Y101.407 F7800.000
G1 X99.868 Y100.171 F7800.000
G1 X106.291 Y105.078 F7800.000
G1 X107.967 Y102.098 F7800.000
G1 X109.498 Y101.626 F7800.000
G1 E2.00000 F2400.00000
G1 X109.944 Y101.193 E2.01726 F900.000
G1 X110.438 Y100.740 E2.02512 F694.466
G1 X111.435 Y100.009 E2.03962
G1 X111.788 Y99.795 E2.04445
G1 X112.230 Y99.528 E2.05881 F900.000
G1 X112.505 Y99.838 E2.07033
G1 X111.973 Y100.516 E2.09426
G1 X110.945 Y101.359 E2.13120
G1 X109.748 Y101.974 E2.16858
G1 X109.542 Y101.687 E2.17839
G1 X108.350 Y102.021 F7800.000
G1 X109.065 Y101.136 E2.21000 F900.000
G1 X109.623 Y100.593 E2.23161
G1 X110.026 Y100.232 E2.24663
G1 X111.072 Y99.464 E2.28267
G1 X112.228 Y98.765 E2.32022
G1 X112.839 Y98.448 E2.33934
G1 X113.121 Y98.875 E2.35355
G1 X113.490 Y99.544 E2.37476
G1 X113.364 Y99.802 E2.38274
G1 X112.443 Y100.976 E2.42417
G1 X111.305 Y101.909 E2.46504
G1 X109.978 Y102.591 E2.50651
G1 X109.607 Y102.697 E2.51722
G1 X108.417 Y102.056 E2.55476
G1 Z0.700 F7800.000
G1 E0.55476 F2400.00000
G92 E0
G1 X92.508 Y104.036 F7800.000
G1 E2.00000 F2400.00000
G1 X92.617 Y104.328 E2.00211 F900.000
G1 X92.962 Y105.661 E2.01143
G1 X93.111 Y106.814 E2.01930
G1 X93.134 Y107.179 E2.02945 F900.000
G1 X92.600 Y107.055 E2.04468
G1 X92.255 Y106.796 E2.05665
G1 X91.577 Y105.979 E2.08614
G1 X91.976 Y104.527 E2.12798
G1 X92.478 Y103.984 E2.14851
G1 X92.322 Y104.634 F7800.000
G1 X92.312 Y105.821 E2.16242 F1200.000
G1 X92.705 Y106.725 E2.17398
G1 E0.17398 F2400.00000
G92 E0
G1 X92.550 Y103.538 F7800.000
G1 X97.230 Y97.182 F7800.000
G1 X96.639 Y96.492 F7800.000
G1 X95.979 Y95.694 F7800.000
G1 X97.217 Y89.169 F7800.000
G1 X99.632 Y88.560 F7800.000
G1 E2.00000 F2400.00000
G1 X98.633 Y88.496 E2.01173 F900.000
G1 X98.156 Y88.427 E2.01738
G1 X97.140 Y88.218 E2.02954
G1 X96.291 Y87.972 E2.03989
G1 X95.174 Y87.565 E2.05384
G1 X94.019 Y87.073 E2.06855
G1 X92.837 Y86.511 E2.08389
G1 X92.831 Y86.097 E2.08873
G1 X93.570 Y85.892 E2.09773
G1 X94.157 Y85.755 E2.10480
G1 X94.572 Y85.736 E2.10967
G1 X95.512 Y85.733 E2.12069
G1 X96.795 Y86.029 E2.13612
G1 X98.008 Y86.619 E2.15193
G1 X99.125 Y87.484 E2.16848
G1 X99.738 Y88.164 E2.17922
G1 X99.653 Y88.488 E2.18314
G1 X100.114 Y89.234 F7800.000
G1 X99.074 Y89.191 E2.19019 F900.000
G1 X98.558 Y89.146 E2.19369
G1 X98.044 Y89.071 E2.19721
G1 X96.983 Y88.853 E2.20454
G1 X96.088 Y88.594 E2.21084
G1 X94.933 Y88.173 E2.21917
G1 X93.750 Y87.669 E2.22787
G1 X92.207 Y86.934 E2.23945
G1 X92.170 Y85.682 E2.24793
G1 X92.539 Y85.500 E2.25071
G1 X93.408 Y85.258 E2.25682
G1 X94.068 Y85.104 E2.26141
G1 X94.557 Y85.083 E2.26472
G1 X95.575 Y85.079 E2.27162
G1 X97.016 Y85.409 E2.28162
G1 X98.355 Y86.061 E2.29170
G1 X99.571 Y87.003 E2.30212
G1 X100.449 Y87.977 E2.31099
G1 X100.336 Y88.485 E2.31452
G1 X100.135 Y89.162 E2.31930
G1 X99.715 Y88.932 F7800.000
G1 X98.662 Y87.890 F7800.000
G1 X97.533 Y87.384 E2.34869 F1200.000
G1 X96.459 Y86.973 E2.37599
G1 X95.423 Y86.662 E2.40169
G1 X93.968 Y86.374 E2.43689
G1 E0.43689 F2400.00000
G92 E0
G1 X100.304 Y89.470 F7800.000
G1 X101.735 Y97.109 F7800.000
G1 X103.300 Y96.050 F7800.000
G1 X104.284 Y95.297 F7800.000
G1 X109.206 Y100.354 F7800.000
G1 X108.867 Y102.077 F7800.000
G1 E2.00000 F2400.00000
G1 X109.428 Y101.399 E2.01032 F900.000
G1 X109.823 Y101.015 E2.01677
G1 X110.311 Y100.577 E2.02446
G1 X111.289 Y99.867 E2.03863
G1 X112.386 Y99.211 E2.05361
G1 X112.811 Y98.990 E2.05922
G1 X113.068 Y99.241 E2.06342
G1 X112.907 Y99.572 E2.06773
G1 X112.069 Y100.633 E2.08359
G1 X111.035 Y101.475 E2.09921
G1 X109.822 Y102.094 E2.11518
G1 X109.220 Y102.266 E2.12252
G1 X108.933 Y102.112 E2.12633
G1 X107.937 Y102.200 F7800.000
G1 X108.625 Y101.328 E2.13385 F900.000
G1 X108.952 Y100.950 E2.13724
G1 X109.376 Y100.537 E2.14125
G1 X109.900 Y100.068 E2.14601
G1 X110.929 Y99.321 E2.15462
G1 X112.068 Y98.640 E2.16360
G1 X113.171 Y98.067 E2.17201
G1 X113.630 Y98.763 E2.17765
G1 X113.841 Y99.146 E2.18980 F900.000
G1 X113.464 Y99.921 E2.19564 F900.000
G1 X112.537 Y101.094 E2.20576
G1 X111.394 Y102.026 E2.21574
G1 X110.062 Y102.705 E2.22587
G1 X109.145 Y102.967 E2.23232
G1 X108.438 Y102.588 E2.23775
G1 X107.996 Y102.246 E2.24153
G1 X108.400 Y102.014 F7800.000
M106 S249.9
G1 Z0.800 F7800.000
G1 E0.24153 F2400.00000
G92 E0
G1 X92.425 Y103.306 F7800.000
G1 E2.00000 F2400.00000
G1 X92.734 Y104.005 E2.00517 F900.000
G1 X92.846 Y104.304 E2.00733
G1 X93.079 Y105.166 E2.01338
G1 X93.174 Y105.605 E2.01642
G1 X93.333 Y106.952 E2.02561
G1 X93.354 Y107.696 E2.03064
M106 S255
G1 X93.357 Y107.781 E2.03302 F900.000
G1 X92.810 Y107.733 E2.04827
G1 X92.008 Y107.547 E2.07115
G1 X91.926 Y107.410 E2.07556
G1 X91.801 Y107.032 E2.08664
M106 S249.9
G1 X91.455 Y105.991 E2.09406 F900.000
G1 X91.345 Y104.938 E2.10123
M106 S255
G1 X91.309 Y104.450 E2.11484 F900.000
G1 X92.389 Y103.270 E2.15928
M106 S249.9
G1 X92.022 Y104.154 F7800.000
G1 X92.316 Y105.805 E2.19911 F1200.000
G1 X92.658 Y107.363 E2.23697
G1 E0.23697 F2400.00000
G92 E0
G1 X92.479 Y102.819 F7800.000
G1 X96.358 Y96.624 F7800.000
G1 X95.580 Y95.676 F7800.000
G1 X95.476 Y95.542 F7800.000
G1 X97.018 Y89.303 F7800.000
G1 X97.611 Y87.672 F7800.000
G1 E2.00000 F2400.00000
G1 X96.439 Y87.329 E2.01432 F900.000
G1 X95.041 Y86.785 E2.03190
G1 X95.122 Y86.394 E2.03658
G1 X95.472 Y86.390 E2.04069
G1 X96.572 Y86.649 E2.05393
G1 X97.616 Y87.164 E2.06757
G1 X97.799 Y87.306 E2.07030
G1 X97.646 Y87.605 E2.07423
G1 X99.876 Y88.748 F7800.000
G1 X99.154 Y88.719 E2.08270 F900.000
G1 X98.217 Y88.618 E2.09375
G1 X97.232 Y88.425 E2.10551
G1 X96.175 Y88.115 E2.11842
G1 X94.927 Y87.642 E2.13407
G1 X93.284 Y86.904 E2.15519
G1 X92.510 Y86.520 E2.16531
G1 X92.481 Y86.089 E2.17037
G1 X92.809 Y85.928 E2.17466
G1 X93.456 Y85.748 E2.18253
G1 X94.187 Y85.577 E2.19133
G1 X95.563 Y85.560 E2.20747
G1 X96.854 Y85.864 E2.22301
G1 X98.059 Y86.458 E2.23875
G1 X99.177 Y87.331 E2.25538
G1 X100.017 Y88.266 E2.27011
G1 X99.897 Y88.676 E2.27512
G1 X100.371 Y89.384 F7800.000
G1 X99.920 Y89.404 E2.27818 F900.000
G1 X99.112 Y89.371 E2.28365
G1 X98.462 Y89.314 E2.28807
G1 X98.107 Y89.263 E2.29050
G1 X97.077 Y89.060 E2.29761
G1 X95.968 Y88.735 E2.30543
G1 X94.677 Y88.246 E2.31477
G1 X93.004 Y87.495 E2.32719
G1 X91.883 Y86.939 E2.33567
G1 X91.834 Y86.214 E2.34058
G1 X91.825 Y85.683 E2.34418
G1 X92.575 Y85.315 E2.34983
G1 X93.294 Y85.114 E2.35488
G1 X94.108 Y84.925 E2.36054
G1 X95.625 Y84.905 E2.37082
G1 X97.071 Y85.244 E2.38087
G1 X98.408 Y85.902 E2.39095
G1 X99.625 Y86.851 E2.40140
G1 X100.746 Y88.100 E2.41277
G1 X100.392 Y89.312 E2.42131
G1 X99.995 Y89.133 F7800.000
G1 X99.393 Y88.192 F7800.000
G1 X98.084 Y87.659 E2.43788 F1200.000
G1 E0.43788 F2400.00000
G92 E0
G1 X100.561 Y89.626 F7800.000
G1 X102.530 Y96.604 F7800.000
G1 X103.863 Y95.660 F7800.000
G1 X104.197 Y95.405 F7800.000
G1 X108.959 Y100.298 F7800.000
G1 X108.487 Y102.218 F7800.000
G1 E2.00000 F2400.00000
G1 X108.918 Y101.672 E2.00815 F900.000
G1 X109.310 Y101.219 E2.01517
G1 X110.197 Y100.402 E2.02930
G1 X111.147 Y99.722 E2.04300
G1 X112.219 Y99.089 E2.05759
G1 X113.156 Y98.608 E2.06994
G1 X113.412 Y98.858 E2.07414
G1 X113.005 Y99.695 E2.08505
G1 X112.170 Y100.746 E2.10077
G1 X111.126 Y101.591 E2.11652
G1 X109.909 Y102.208 E2.13252
G1 X108.857 Y102.503 E2.14532
G1 X108.547 Y102.264 E2.14992
G1 X107.622 Y102.375 F7800.000
G1 X107.945 Y101.850 E2.15409 F900.000
G1 X108.414 Y101.256 E2.15922
G1 X108.840 Y100.764 E2.16362
G1 X109.778 Y99.900 E2.17225
G1 X110.787 Y99.176 E2.18066
G1 X111.906 Y98.515 E2.18946
G1 X113.401 Y97.761 E2.20080
G1 X114.188 Y98.757 E2.20939
G1 X113.563 Y100.042 E2.21907
G1 X113.036 Y100.722 E2.22489
G1 X112.633 Y101.212 E2.22919
G1 X111.483 Y102.143 E2.23920
G1 X110.147 Y102.820 E2.24934
G1 X108.718 Y103.222 E2.25939
G1 X107.681 Y102.421 E2.26826
G1 X108.070 Y102.153 F7800.000
G1 X109.257 Y101.942 F7800.000
G1 X109.989 Y101.456 E2.27856 F1200.000
G1 X110.714 Y100.955 E2.29949 F1200.000
G1 X111.667 Y100.238 E2.32781
G1 X112.054 Y99.905 E2.33993
G1 X112.054 Y99.905 F7800.000
G1 X112.717 Y99.336 E2.35017 F1200.000
M106 S247.35
G1 Z0.900 F7800.000
G1 E0.35017 F2400.00000
G92 E0
G1 X92.266 Y103.978 F7800.000
G1 E2.00000 F2400.00000
G1 X92.452 Y104.478 E2.00625 F900.000
G1 X92.617 Y105.088 E2.01366
G1 X92.741 Y105.665 E2.02058
G1 X92.832 Y106.367 E2.02888
G1 X92.880 Y106.914 E2.03532
G1 X92.891 Y107.297 E2.03980
G1 X92.521 Y107.404 E2.04431
G1 X92.381 Y107.168 E2.04752
G1 X91.960 Y105.881 E2.06340
G1 X91.823 Y104.525 E2.07937
G1 X91.874 Y104.028 E2.08523
G1 X92.191 Y103.988 E2.08897
G1 X92.401 Y102.742 F7800.000
G1 X92.523 Y102.959 E2.09066 F900.000
G1 X92.904 Y103.820 E2.09704
G1 X93.075 Y104.278 E2.10034
G1 X93.252 Y104.934 E2.10494
G1 X93.386 Y105.554 E2.10924
G1 X93.482 Y106.297 E2.11431
G1 X93.533 Y106.876 E2.11825
G1 X93.573 Y108.302 E2.12790
M106 S255
G1 X93.133 Y108.349 E2.14019 F900.000
G1 X92.513 Y108.295 E2.15748
G1 X92.254 Y108.234 E2.16487
G1 X92.174 Y108.099 E2.16924
M106 S247.35
G1 X91.783 Y107.440 E2.17443 F900.000
G1 X91.316 Y106.017 E2.18457
G1 X91.167 Y104.525 E2.19472
G1 X91.240 Y103.802 E2.19964
G1 X91.891 Y103.091 E2.20616
G1 X92.339 Y102.784 E2.20984
G1 X92.405 Y102.991 F7800.000
G1 E0.20984 F2400.00000
G92 E0
G1 X92.467 Y102.393 F7800.000
G1 X91.185 Y100.521 F7800.000
G1 X95.953 Y96.371 F7800.000
G1 X97.250 Y89.534 F7800.000
G1 X98.271 Y87.959 F7800.000
G1 E2.00000 F2400.00000
G1 X97.678 Y87.851 E2.00706 F900.000
G1 X95.423 Y87.126 E2.03483
G1 X94.279 Y86.616 E2.04951
G1 X94.360 Y86.224 E2.05421
G1 X95.136 Y86.216 E2.06330
G1 X95.331 Y86.238 E2.06560
G1 X96.652 Y86.568 E2.08156
G1 X97.312 Y86.829 E2.08988
G1 X97.667 Y87.004 E2.09452
G1 X98.431 Y87.604 E2.10591
G1 X98.302 Y87.891 E2.10958
G1 X100.281 Y88.357 F7800.000
G1 X100.126 Y88.908 E2.11629 F900.000
G1 X99.791 Y88.923 E2.12022
G1 X99.193 Y88.899 E2.12724
G1 X98.456 Y88.835 E2.13590
G1 X97.474 Y88.656 E2.14761
G1 X96.208 Y88.239 E2.16323
G1 X95.308 Y87.968 E2.17425
G1 X93.541 Y87.194 E2.19685
G1 X92.190 Y86.524 E2.21453
G1 X92.164 Y86.067 E2.21990
G1 X92.834 Y85.745 E2.22862
G1 X93.342 Y85.604 E2.23479
G1 X94.230 Y85.397 E2.24548
G1 X95.178 Y85.387 E2.25659
G1 X95.478 Y85.421 E2.26013
G1 X96.906 Y85.777 E2.27739
G1 X97.648 Y86.071 E2.28674
G1 X98.111 Y86.299 E2.29279
G1 X99.229 Y87.178 E2.30946
G1 X100.231 Y88.301 E2.32711
G1 X100.626 Y89.540 F7800.000
G1 X99.793 Y89.577 E2.33276 F900.000
G1 X99.151 Y89.551 E2.33710
G1 X98.370 Y89.483 E2.34242
G1 X97.312 Y89.291 E2.34969
G1 X94.860 Y88.497 E2.36714
G1 X93.263 Y87.786 E2.37898
G1 X91.560 Y86.941 E2.39185
G1 X91.487 Y85.679 E2.40041
G1 X92.147 Y85.342 E2.40542
G1 X92.609 Y85.130 E2.40887
G1 X93.180 Y84.971 E2.41288
G1 X94.151 Y84.744 E2.41963
G1 X95.211 Y84.733 E2.42681
G1 X95.594 Y84.776 E2.42942
G1 X97.106 Y85.154 E2.43997
G1 X97.913 Y85.473 E2.44584
G1 X98.461 Y85.743 E2.44998
G1 X99.678 Y86.700 E2.46046
G1 X100.765 Y87.919 E2.47152
G1 X100.988 Y88.260 E2.47427
G1 X100.647 Y89.468 E2.48277
G1 X100.210 Y89.264 F7800.000
G1 E0.48277 F2400.00000
G92 E0
G1 X100.818 Y89.782 F7800.000
G1 X101.930 Y96.977 F7800.000
G1 X102.744 Y96.472 F7800.000
G1 X103.448 Y95.991 F7800.000
