; generated by Slic3r 1.2.9 on 2017-01-04 at 22:54:53

; external perimeters extrusion width = 0.50mm
; perimeters extrusion width = 0.85mm
; infill extrusion width = 1.98mm
; solid infill extrusion width = 0.85mm
; top infill extrusion width = 0.85mm

M127
M104 S200 T0 ; set temperature
G28 ; home all axes
G1 Z5 F5000 ; lift nozzle

G21 ; set units to millimeters
G90 ; use absolute coordinates
M73 P0
G1 Z0.500 F7800.000
G1 E-2.00000 F2400.00000
G1 X88.462 Y81.112 F7800.000
G1 E0.00000 F2400.00000
G1 X90.273 Y79.631 E0.14774 F1275.764
G1 X91.820 Y78.989 E0.25349
G1 X92.293 Y78.866 E0.28437
G1 X93.556 Y78.692 E0.36482
G1 X94.742 Y78.640 E0.43984
G1 X95.380 Y78.632 E0.48012
G1 X96.747 Y78.764 E0.56681
G1 X97.764 Y78.966 E0.63229 F1275.764
G1 X98.473 Y79.129 E0.67824
G1 X99.760 Y79.570 E0.76412
G1 X101.001 Y80.141 E0.85042
G1 X101.319 Y80.298 E0.87281
G1 X102.426 Y80.981 E0.95495
G1 X103.282 Y81.627 E1.02265
G1 X104.025 Y82.277 E1.08497
G1 X116.385 Y94.760 E2.19426
G1 X118.059 Y97.530 E2.39864
G1 X118.327 Y98.623 E2.46971
G1 X118.358 Y98.810 E2.48169
G1 X118.333 Y101.150 E2.62943
G1 X117.294 Y103.724 E2.80472
G1 X116.768 Y104.516 E2.86477
G1 X115.755 Y105.717 E2.96397
G1 X115.372 Y106.077 E2.99714
G1 X113.422 Y107.370 E3.14488
G1 X111.152 Y107.935 E3.29262
G1 X109.463 Y107.852 E3.39942
G1 X108.658 Y107.712 E3.45101
G1 X106.454 Y106.925 E3.59875
G1 X105.388 Y106.183 E3.68076
G1 X89.169 Y92.463 E5.02224
G1 X87.665 Y90.670 E5.16998
G1 X86.731 Y87.423 E5.38335
G1 X86.730 Y86.936 E5.41407
G1 X86.780 Y85.406 E5.51079
G1 X87.251 Y83.114 E5.65853
G1 X88.423 Y81.176 E5.80154
G1 E3.80154 F2400.00000
G1 X98.438 Y88.143 F7800.000
G1 E5.80154 F2400.00000
G1 X97.596 Y88.013 E5.85532 F1275.764
G1 X96.681 Y87.788 E5.91480
G1 X95.396 Y87.373 E6.00007
G1 X94.131 Y86.866 E6.08612
G1 X94.156 Y86.068 E6.13653
G1 X95.364 Y86.026 E6.21291
G1 X96.726 Y86.312 E6.30077
G1 X98.012 Y86.911 E6.39038
G1 X98.581 Y87.341 E6.43536
G1 X98.451 Y88.069 E6.48205
G1 X98.050 Y87.827 F7800.000
G1 X98.083 Y87.587 F7800.000
G1 X97.703 Y87.425 E6.50813 F1275.764
G1 X96.493 Y86.984 E6.58947
G1 X95.313 Y86.660 E6.66674
G1 X94.588 Y86.533 E6.71324
M73 P0
G1 Z0.600 F7800.000
G1 E4.71324 F2400.00000
G1 X99.165 Y88.362 F7800.000
G1 E6.71324 F2400.00000
G1 X98.730 Y88.328 E6.71836 F694.466
G1 X98.085 Y88.235 E6.72599
G1 X97.480 Y88.120 E6.73321
G1 X96.336 Y87.806 E6.74712
G1 X95.193 Y87.396 E6.76135
G1 X94.014 Y86.900 E6.77634
G1 X93.387 Y86.609 E6.78445
G1 X92.728 Y86.302 E6.80465 F900.000
G1 X93.403 Y86.114 E6.82412
G1 X94.114 Y85.935 E6.83271 F694.466
G1 X94.696 Y85.910 E6.83955
G1 X95.464 Y85.907 E6.84854
G1 X96.745 Y86.196 E6.86393
G1 X97.957 Y86.779 E6.87971
G1 X99.072 Y87.636 E6.89619
G1 X99.256 Y87.840 E6.89941
G1 X99.382 Y87.980 E6.90462 F900.000
G1 X99.293 Y88.367 E6.91566
G1 X99.240 Y88.365 E6.91713
G1 X99.809 Y89.043 F7800.000
G1 X98.654 Y88.978 E6.94926 F900.000
G1 X97.978 Y88.879 E6.96826
G1 X97.341 Y88.758 E6.98626
G1 X96.134 Y88.428 E7.02101
G1 X95.439 Y88.178 E7.04153
G1 X94.956 Y88.005 E7.04500 F694.466
G1 X93.374 Y87.323 E7.05666
G1 X92.539 Y86.935 E7.08226 F900.000
G1 X92.516 Y85.683 E7.11705
G1 X93.699 Y85.361 E7.15111
G1 X93.835 Y85.329 E7.15206 F694.466
G1 X94.024 Y85.285 E7.15745 F900.000
G1 X94.681 Y85.256 E7.17570
G1 X95.527 Y85.253 E7.19920
G1 X96.964 Y85.576 E7.24012
G1 X97.818 Y85.987 E7.26645
G1 X98.302 Y86.219 E7.27008 F694.466
G1 X99.393 Y87.058 E7.27940
G1 X99.518 Y87.154 E7.28377 F900.000
G1 X100.094 Y87.794 E7.30770
G1 X99.826 Y88.969 E7.34119
G1 E5.34119 F2400.00000
G1 X98.027 Y87.603 F7800.000
G1 E7.34119 F2400.00000
G1 X97.576 Y87.398 E7.35296 F925.955
G1 X96.468 Y86.977 E7.38110
G1 X95.391 Y86.661 E7.40776
G1 X94.724 Y86.528 E7.42390
G1 E5.42390 F2400.00000
G1 X96.057 Y88.666 F7800.000
G1 X96.973 Y95.767 F7800.000
G1 X98.673 Y97.663 F7800.000
G1 X91.626 Y103.351 F7800.000
G1 X92.626 Y104.277 F7800.000
G1 X92.983 Y106.406 F7800.000
G1 E7.42390 F2400.00000
G1 X92.684 Y105.718 E7.43269 F1388.932
G1 X92.644 Y104.723 E7.44437
G1 E5.44437 F2400.00000
G1 X92.976 Y105.571 F7800.000
G1 X99.108 Y101.407 F7800.000
G1 X99.868 Y100.171 F7800.000
G1 X106.291 Y105.078 F7800.000
G1 X107.967 Y102.098 F7800.000
G1 X109.498 Y101.626 F7800.000
G1 E7.44437 F2400.00000
G1 X109.944 Y101.193 E7.46163 F900.000
G1 X110.438 Y100.740 E7.46949 F694.466
G1 X111.435 Y100.009 E7.48398
G1 X111.788 Y99.795 E7.48882
G1 X112.230 Y99.528 E7.50318 F900.000
G1 X112.505 Y99.838 E7.51469
G1 X111.973 Y100.516 E7.53863
G1 X110.945 Y101.359 E7.57557
G1 X109.748 Y101.974 E7.61294
G1 X109.542 Y101.687 E7.62276
G1 X108.350 Y102.021 F7800.000
G1 X109.065 Y101.136 E7.65436 F900.000
G1 X109.623 Y100.593 E7.67598
G1 X110.026 Y100.232 E7.69100
G1 X111.072 Y99.464 E7.72704
G1 X112.228 Y98.765 E7.76458
G1 X112.839 Y98.448 E7.78371
G1 X113.121 Y98.875 E7.79792
G1 X113.490 Y99.544 E7.81912
G1 X113.364 Y99.802 E7.82711
G1 X112.443 Y100.976 E7.86854
G1 X111.305 Y101.909 E7.90941
G1 X109.978 Y102.591 E7.95087
G1 X109.607 Y102.697 E7.96158
G1 X108.417 Y102.056 E7.99913
M73 P1
G1 Z0.700 F7800.000
G1 E5.99913 F2400.00000
G1 X92.508 Y104.036 F7800.000
G1 E7.99913 F2400.00000
G1 X92.617 Y104.328 E8.00123 F900.000
G1 X92.962 Y105.661 E8.01056
G1 X93.111 Y106.814 E8.01843
G1 X93.134 Y107.179 E8.02858 F900.000
G1 X92.600 Y107.055 E8.04381
G1 X92.255 Y106.796 E8.05578
G1 X91.577 Y105.979 E8.08527
G1 X91.976 Y104.527 E8.12711
G1 X92.478 Y103.984 E8.14763
G1 X92.322 Y104.634 F7800.000
G1 X92.312 Y105.821 E8.16155 F1200.000
G1 X92.705 Y106.725 E8.17310
G1 E6.17310 F2400.00000
G1 X92.550 Y103.538 F7800.000
G1 X97.230 Y97.182 F7800.000
G1 X96.639 Y96.492 F7800.000
G1 X95.979 Y95.694 F7800.000
G1 X97.217 Y89.169 F7800.000
G1 X99.632 Y88.560 F7800.000
G1 E8.17310 F2400.00000
G1 X98.633 Y88.496 E8.18483 F900.000
G1 X98.156 Y88.427 E8.19048
G1 X97.140 Y88.218 E8.20264
G1 X96.291 Y87.972 E8.21300
G1 X95.174 Y87.565 E8.22694
G1 X94.019 Y87.073 E8.24166
G1 X92.837 Y86.511 E8.25699
G1 X92.831 Y86.097 E8.26184
G1 X93.570 Y85.892 E8.27083
G1 X94.157 Y85.755 E8.27790
G1 X94.572 Y85.736 E8.28277
G1 X95.512 Y85.733 E8.29379
G1 X96.795 Y86.029 E8.30922
G1 X98.008 Y86.619 E8.32503
G1 X99.125 Y87.484 E8.34159
G1 X99.738 Y88.164 E8.35232
G1 X99.653 Y88.488 E8.35624
G1 X100.114 Y89.234 F7800.000
G1 X99.074 Y89.191 E8.36329 F900.000
G1 X98.558 Y89.146 E8.36679
G1 X98.044 Y89.071 E8.37031
G1 X96.983 Y88.853 E8.37764
G1 X96.088 Y88.594 E8.38395
G1 X94.933 Y88.173 E8.39227
G1 X93.750 Y87.669 E8.40098
G1 X92.207 Y86.934 E8.41255
G1 X92.170 Y85.682 E8.42103
G1 X92.539 Y85.500 E8.42381
G1 X93.408 Y85.258 E8.42992
G1 X94.068 Y85.104 E8.43451
G1 X94.557 Y85.083 E8.43782
G1 X95.575 Y85.079 E8.44472
G1 X97.016 Y85.409 E8.45472
G1 X98.355 Y86.061 E8.46480
G1 X99.571 Y87.003 E8.47522
G1 X100.449 Y87.977 E8.48410
G1 X100.336 Y88.485 E8.48762
G1 X100.135 Y89.162 E8.49240
G1 X99.715 Y88.932 F7800.000
G1 X98.662 Y87.890 F7800.000
G1 X97.533 Y87.384 E8.52179 F1200.000
G1 X96.459 Y86.973 E8.54910
G1 X95.423 Y86.662 E8.57479
G1 X93.968 Y86.374 E8.60999
G1 E6.60999 F2400.00000
G1 X100.304 Y89.470 F7800.000
G1 X101.735 Y97.109 F7800.000
G1 X103.300 Y96.050 F7800.000
G1 X104.284 Y95.297 F7800.000
G1 X109.206 Y100.354 F7800.000
G1 X108.867 Y102.077 F7800.000
G1 E8.60999 F2400.00000
G1 X109.428 Y101.399 E8.62031 F900.000
G1 X109.823 Y101.015 E8.62676
G1 X110.311 Y100.577 E8.63445
G1 X111.289 Y99.867 E8.64862
G1 X112.386 Y99.211 E8.66360
G1 X112.811 Y98.990 E8.66921
G1 X113.068 Y99.241 E8.67342
G1 X112.907 Y99.572 E8.67773
G1 X112.069 Y100.633 E8.69358
G1 X111.035 Y101.475 E8.70921
G1 X109.822 Y102.094 E8.72517
G1 X109.220 Y102.266 E8.73251
G1 X108.933 Y102.112 E8.73633
G1 X107.937 Y102.200 F7800.000
G1 X108.625 Y101.328 E8.74385 F900.000
G1 X108.952 Y100.950 E8.74723
G1 X109.376 Y100.537 E8.75124
G1 X109.900 Y100.068 E8.75600
G1 X110.929 Y99.321 E8.76461
G1 X112.068 Y98.640 E8.77359
G1 X113.171 Y98.067 E8.78201
G1 X113.630 Y98.763 E8.78765
G1 X113.841 Y99.146 E8.79979 F900.000
G1 X113.464 Y99.921 E8.80563 F900.000
G1 X112.537 Y101.094 E8.81575
G1 X111.394 Y102.026 E8.82573
G1 X110.062 Y102.705 E8.83586
G1 X109.145 Y102.967 E8.84232
G1 X108.438 Y102.588 E8.84774
G1 X107.996 Y102.246 E8.85153
G1 X108.400 Y102.014 F7800.000
M126
M73 P1
G1 Z0.800 F7800.000
G1 E6.85153 F2400.00000
G1 X92.425 Y103.306 F7800.000
G1 E8.85153 F2400.00000
G1 X92.734 Y104.005 E8.85670 F900.000
G1 X92.846 Y104.304 E8.85886
G1 X93.079 Y105.166 E8.86491
G1 X93.174 Y105.605 E8.86795
G1 X93.333 Y106.952 E8.87713
G1 X93.354 Y107.696 E8.88217
M126
G1 X93.357 Y107.781 E8.88455 F900.000
G1 X92.810 Y107.733 E8.89980
G1 X92.008 Y107.547 E8.92268
G1 X91.926 Y107.410 E8.92709
G1 X91.801 Y107.032 E8.93817
M126
G1 X91.455 Y105.991 E8.94559 F900.000
G1 X91.345 Y104.938 E8.95276
M126
G1 X91.309 Y104.450 E8.96637 F900.000
G1 X92.389 Y103.270 E9.01081
M126
G1 X92.022 Y104.154 F7800.000
G1 X92.316 Y105.805 E9.05063 F1200.000
G1 X92.658 Y107.363 E9.08850
G1 E7.08850 F2400.00000
G1 X92.479 Y102.819 F7800.000
G1 X96.358 Y96.624 F7800.000
G1 X95.580 Y95.676 F7800.000
G1 X95.476 Y95.542 F7800.000
G1 X97.018 Y89.303 F7800.000
G1 X97.611 Y87.672 F7800.000
G1 E9.08850 F2400.00000
G1 X96.439 Y87.329 E9.10282 F900.000
G1 X95.041 Y86.785 E9.12040
G1 X95.122 Y86.394 E9.12508
G1 X95.472 Y86.390 E9.12918
G1 X96.572 Y86.649 E9.14243
G1 X97.616 Y87.164 E9.15607
G1 X97.799 Y87.306 E9.15879
G1 X97.646 Y87.605 E9.16273
G1 X99.876 Y88.748 F7800.000
G1 X99.154 Y88.719 E9.17120 F900.000
G1 X98.217 Y88.618 E9.18225
G1 X97.232 Y88.425 E9.19401
G1 X96.175 Y88.115 E9.20692
G1 X94.927 Y87.642 E9.22257
G1 X93.284 Y86.904 E9.24368
G1 X92.510 Y86.520 E9.25381
G1 X92.481 Y86.089 E9.25887
G1 X92.809 Y85.928 E9.26316
G1 X93.456 Y85.748 E9.27103
G1 X94.187 Y85.577 E9.27983
G1 X95.563 Y85.560 E9.29597
G1 X96.854 Y85.864 E9.31151
G1 X98.059 Y86.458 E9.32725
G1 X99.177 Y87.331 E9.34388
G1 X100.017 Y88.266 E9.35861
G1 X99.897 Y88.676 E9.36362
G1 X100.371 Y89.384 F7800.000
G1 X99.920 Y89.404 E9.36668 F900.000
G1 X99.112 Y89.371 E9.37215
G1 X98.462 Y89.314 E9.37657
G1 X98.107 Y89.263 E9.37900
G1 X97.077 Y89.060 E9.38610
G1 X95.968 Y88.735 E9.39393
G1 X94.677 Y88.246 E9.40327
G1 X93.004 Y87.495 E9.41569
G1 X91.883 Y86.939 E9.42416
G1 X91.834 Y86.214 E9.42908
G1 X91.825 Y85.683 E9.43267
G1 X92.575 Y85.315 E9.43833
G1 X93.294 Y85.114 E9.44338
G1 X94.108 Y84.925 E9.44904
G1 X95.625 Y84.905 E9.45931
G1 X97.071 Y85.244 E9.46937
G1 X98.408 Y85.902 E9.47945
G1 X99.625 Y86.851 E9.48990
G1 X100.746 Y88.100 E9.50126
G1 X100.392 Y89.312 E9.50981
G1 X99.995 Y89.133 F7800.000
G1 X99.393 Y88.192 F7800.000
G1 X98.084 Y87.659 E9.52638 F1200.000
G1 E7.52638 F2400.00000
G1 X100.561 Y89.626 F7800.000
G1 X102.530 Y96.604 F7800.000
G1 X103.863 Y95.660 F7800.000
G1 X104.197 Y95.405 F7800.000
G1 X108.959 Y100.298 F7800.000
G1 X108.487 Y102.218 F7800.000
G1 E9.52638 F2400.00000
G1 X108.918 Y101.672 E9.53452 F900.000
G1 X109.310 Y101.219 E9.54154
G1 X110.197 Y100.402 E9.55568
G1 X111.147 Y99.722 E9.56938
G1 X112.219 Y99.089 E9.58397
G1 X113.156 Y98.608 E9.59632
G1 X113.412 Y98.858 E9.60052
G1 X113.005 Y99.695 E9.61143
G1 X112.170 Y100.746 E9.62715
G1 X111.126 Y101.591 E9.64290
G1 X109.909 Y102.208 E9.65890
G1 X108.857 Y102.503 E9.67170
G1 X108.547 Y102.264 E9.67630
G1 X107.622 Y102.375 F7800.000
G1 X107.945 Y101.850 E9.68047 F900.000
G1 X108.414 Y101.256 E9.68560
G1 X108.840 Y100.764 E9.69000
G1 X109.778 Y99.900 E9.69863
G1 X110.787 Y99.176 E9.70704
G1 X111.906 Y98.515 E9.71584
G1 X113.401 Y97.761 E9.72718
G1 X114.188 Y98.757 E9.73577
G1 X113.563 Y100.042 E9.74545
G1 X113.036 Y100.722 E9.75127
G1 X112.633 Y101.212 E9.75557
G1 X111.483 Y102.143 E9.76558
G1 X110.147 Y102.820 E9.77572
G1 X108.718 Y103.222 E9.78577
G1 X107.681 Y102.421 E9.79464
G1 X108.070 Y102.153 F7800.000
G1 X109.257 Y101.942 F7800.000
G1 X109.989 Y101.456 E9.80494 F1200.000
G1 X110.714 Y100.955 E9.82587 F1200.000
G1 X111.667 Y100.238 E9.85418
G1 X112.054 Y99.905 E9.86631
G1 X112.054 Y99.905 F7800.000
G1 X112.717 Y99.336 E9.87655 F1200.000
M126
M73 P2
G1 Z0.900 F7800.000
G1 E7.87655 F2400.00000
G1 X92.266 Y103.978 F7800.000
G1 E9.87655 F2400.00000
G1 X92.452 Y104.478 E9.88280 F900.000
G1 X92.617 Y105.088 E9.89021
G1 X92.741 Y105.665 E9.89713
G1 X92.832 Y106.367 E9.90543
G1 X92.880 Y106.914 E9.91187
G1 X92.891 Y107.297 E9.91635
G1 X92.521 Y107.404 E9.92086
G1 X92.381 Y107.168 E9.92407
G1 X91.960 Y105.881 E9.93995
G1 X91.823 Y104.525 E9.95592
G1 X91.874 Y104.028 E9.96178
G1 X92.191 Y103.988 E9.96552
G1 X92.401 Y102.742 F7800.000
G1 X92.523 Y102.959 E9.96721 F900.000
G1 X92.904 Y103.820 E9.97359
G1 X93.075 Y104.278 E9.97689
G1 X93.252 Y104.934 E9.98149
G1 X93.386 Y105.554 E9.98579
G1 X93.482 Y106.297 E9.99086
G1 X93.533 Y106.876 E9.99480
G1 X93.573 Y108.302 E10.00445
M126
G1 X93.133 Y108.349 E10.01674 F900.000
G1 X92.513 Y108.295 E10.03403
G1 X92.254 Y108.234 E10.04142
G1 X92.174 Y108.099 E10.04579
M126
G1 X91.783 Y107.440 E10.05098 F900.000
G1 X91.316 Y106.017 E10.06112
G1 X91.167 Y104.525 E10.07127
G1 X91.240 Y103.802 E10.07619
G1 X91.891 Y103.091 E10.08272
G1 X92.339 Y102.784 E10.08639
G1 X92.405 Y102.991 F7800.000
G1 E8.08639 F2400.00000
G1 X92.467 Y102.393 F7800.000
G1 X91.185 Y100.521 F7800.000
G1 X95.953 Y96.371 F7800.000
G1 X97.250 Y89.534 F7800.000
G1 X98.271 Y87.959 F7800.000
G1 E10.08639 F2400.00000
G1 X97.678 Y87.851 E10.09346 F900.000
G1 X95.423 Y87.126 E10.12122
G1 X94.279 Y86.616 E10.13591
G1 X94.360 Y86.224 E10.14060
G1 X95.136 Y86.216 E10.14969
G1 X95.331 Y86.238 E10.15199
G1 X96.652 Y86.568 E10.16795
G1 X97.312 Y86.829 E10.17628
G1 X97.667 Y87.004 E10.18091
G1 X98.431 Y87.604 E10.19230
G1 X98.302 Y87.891 E10.19598
G1 X100.281 Y88.357 F7800.000
G1 X100.126 Y88.908 E10.20269 F900.000
G1 X99.791 Y88.923 E10.20661
G1 X99.193 Y88.899 E10.21363
G1 X98.456 Y88.835 E10.22230
G1 X97.474 Y88.656 E10.23400
G1 X96.208 Y88.239 E10.24962
G1 X95.308 Y87.968 E10.26064
G1 X93.541 Y87.194 E10.28325
G1 X92.190 Y86.524 E10.30093
G1 X92.164 Y86.067 E10.30629
G1 X92.834 Y85.745 E10.31501
G1 X93.342 Y85.604 E10.32119
G1 X94.230 Y85.397 E10.33187
G1 X95.178 Y85.387 E10.34299
G1 X95.478 Y85.421 E10.34653
G1 X96.906 Y85.777 E10.36378
G1 X97.648 Y86.071 E10.37314
G1 X98.111 Y86.299 E10.37919
G1 X99.229 Y87.178 E10.39585
G1 X100.231 Y88.301 E10.41350
G1 X100.626 Y89.540 F7800.000
G1 X99.793 Y89.577 E10.41915 F900.000
G1 X99.151 Y89.551 E10.42350
G1 X98.370 Y89.483 E10.42881
G1 X97.312 Y89.291 E10.43608
G1 X94.860 Y88.497 E10.45353
G1 X93.263 Y87.786 E10.46537
G1 X91.560 Y86.941 E10.47824
G1 X91.487 Y85.679 E10.48680
G1 X92.147 Y85.342 E10.49182
G1 X92.609 Y85.130 E10.49526
G1 X93.180 Y84.971 E10.49927
G1 X94.151 Y84.744 E10.50602
G1 X95.211 Y84.733 E10.51320
G1 X95.594 Y84.776 E10.51581
G1 X97.106 Y85.154 E10.52636
G1 X97.913 Y85.473 E10.53224
G1 X98.461 Y85.743 E10.53637
G1 X99.678 Y86.700 E10.54685
G1 X100.765 Y87.919 E10.55791
G1 X100.988 Y88.260 E10.56067
G1 X100.647 Y89.468 E10.56916
G1 X100.210 Y89.264 F7800.000
G1 E8.56916 F2400.00000
G1 X100.818 Y89.782 F7800.000
G1 X101.930 Y96.977 F7800.000
G1 X102.744 Y96.472 F7800.000
G1 X103.448 Y95.991 F7800.000
G1 X108.550 Y100.401 F7800.000
G1 X108.150 Y102.364 F7800.000
G1 E10.56916 F2400.00000
G1 X108.378 Y102.017 E10.57403 F900.000
G1 X108.707 Y101.600 E10.58026
G1 X109.198 Y101.033 E10.58906
G1 X110.059 Y100.249 E10.60270
G1 X110.998 Y99.583 E10.61620
G1 X112.059 Y98.963 E10.63060
G1 X113.421 Y98.271 E10.64850
G1 X113.694 Y98.617 E10.65367
G1 X113.114 Y99.800 E10.66910
G1 X112.260 Y100.868 E10.68514
G1 X111.217 Y101.707 E10.70083
G1 X109.994 Y102.322 E10.71688
G1 X108.609 Y102.712 E10.73373
G1 X108.209 Y102.409 E10.73961
G1 X107.290 Y102.534 F7800.000
G1 X107.847 Y101.635 E10.74677 F900.000
G1 X108.203 Y101.184 E10.75066
G1 X108.729 Y100.576 E10.75610
G1 X109.649 Y99.739 E10.76452
G1 X110.644 Y99.033 E10.77278
G1 X111.745 Y98.389 E10.78142
G1 X113.001 Y97.751 E10.79095
G1 X113.598 Y97.483 E10.79539
G1 X113.907 Y97.832 E10.79854
G1 X114.421 Y98.483 E10.80416
G1 X114.345 Y98.770 E10.80616
G1 X113.665 Y100.157 E10.81663
G1 X112.726 Y101.332 E10.82681
G1 X111.572 Y102.260 E10.83683
G1 X110.231 Y102.934 E10.84699
